assets/img/braze_icons/database-03.svg

<svg fill="none" height="24" viewBox="0 0 24 24" width="24" xmlns="http://www.w3.org/2000/svg"><path clip-rule="evenodd" d="m13 14.9826c2.1847-.0767 4.1683-.403 5.6917-.9116.8712-.2908 1.6474-.6595 2.2262-1.1182.5689-.4508 1.0821-1.1034 1.0821-1.9528v-6c0-.85195-.5189-1.50441-1.0883-1.95315-.5807-.45762-1.3589-.826-2.2315-1.11685-1.7556-.5852-4.1173-.93-6.6802-.93-2.56285 0-4.92459.3448-6.68019.93-.87257.29085-1.65085.65923-2.23152 1.11685-.5694.44874-1.08829 1.1012-1.08829 1.95315v6c0 .8494.51319 1.502 1.08206 1.9528.57885.4587 1.35506.8274 2.22627 1.1182 1.52332.5086 3.50692.8349 5.69167.9116v2.1881c-.8524.3013-1.52801.9769-1.82929 1.8293h-6.17071c-.55228 0-1 .4477-1 1s.44772 1 1 1h6.17071c.41183 1.1652 1.52309 2 2.82929 2s2.4175-.8348 2.8293-2h6.1707c.5523 0 1-.4477 1-1s-.4477-1-1-1h-6.1707c-.3013-.8524-.9769-1.528-1.8293-1.8293zm-9-9.98266s-.00002-.00515.00305-.01523c.0034-.01115.01178-.03316.03202-.06614.04245-.06914.12901-.1731.29117-.30089.33018-.26021.86992-.53828 1.62603-.79032 1.50175-.50058 3.64002-.82736 6.04773-.82736 2.4077 0 4.546.32678 6.0477.82736.7561.25204 1.2959.53011 1.6261.79032.1621.12779.2487.23175.2911.30089.0203.03298.0286.05499.032.06614.0031.01008.0031.01523.0031.01523s-.0001.00577-.0031.01535c-.0034.01115-.0117.03316-.032.06614-.0424.06914-.129.1731-.2911.30089-.3302.26021-.87.53828-1.6261.79032-1.5017.50058-3.64.82736-6.0477.82736-2.40771 0-4.54598-.32678-6.04773-.82736-.75611-.25204-1.29585-.53011-1.62603-.79032-.16216-.12779-.24872-.23175-.29117-.30089-.02024-.03298-.02862-.05499-.03202-.06614-.00287-.00945-.00305-.01535-.00305-.01535z" fill="#801ed7" fill-rule="evenodd"/></svg>

<svg width="24" height="24" viewBox="0 0 24 24" fill="none" xmlns="http://www.w3.org/2000/svg">
<path fill-rule="evenodd" clip-rule="evenodd" d="M13 14.9826C15.1847 14.9059 17.1683 14.5796 18.6917 14.071C19.5629 13.7802 20.3391 13.4115 20.9179 12.9528C21.4868 12.502 22 11.8494 22 11V5C22 4.14805 21.4811 3.49559 20.9117 3.04685C20.331 2.58923 19.5528 2.22085 18.6802 1.93C16.9246 1.3448 14.5629 1 12 1C9.43715 1 7.07541 1.3448 5.31981 1.93C4.44724 2.22085 3.66896 2.58923 3.08829 3.04685C2.51889 3.49559 2 4.14805 2 5V11C2 11.8494 2.51319 12.502 3.08206 12.9528C3.66091 13.4115 4.43712 13.7802 5.30833 14.071C6.83165 14.5796 8.81525 14.9059 11 14.9826V17.1707C10.1476 17.472 9.47199 18.1476 9.17071 19H3C2.44772 19 2 19.4477 2 20C2 20.5523 2.44772 21 3 21H9.17071C9.58254 22.1652 10.6938 23 12 23C13.3062 23 14.4175 22.1652 14.8293 21H21C21.5523 21 22 20.5523 22 20C22 19.4477 21.5523 19 21 19H14.8293C14.528 18.1476 13.8524 17.472 13 17.1707V14.9826ZM4 4.99994C4 4.99994 3.99998 4.99479 4.00305 4.98471C4.00645 4.97356 4.01483 4.95155 4.03507 4.91857C4.07752 4.84943 4.16408 4.74547 4.32624 4.61768C4.65642 4.35747 5.19616 4.0794 5.95227 3.82736C7.45402 3.32678 9.59229 3 12 3C14.4077 3 16.546 3.32678 18.0477 3.82736C18.8038 4.0794 19.3436 4.35747 19.6738 4.61768C19.8359 4.74547 19.9225 4.84943 19.9649 4.91857C19.9852 4.95155 19.9935 4.97356 19.9969 4.98471C20 4.99479 20 4.99994 20 4.99994C20 4.99994 19.9999 5.00571 19.9969 5.01529C19.9935 5.02644 19.9852 5.04845 19.9649 5.08143C19.9225 5.15057 19.8359 5.25453 19.6738 5.38232C19.3436 5.64253 18.8038 5.9206 18.0477 6.17264C16.546 6.67322 14.4077 7 12 7C9.59229 7 7.45402 6.67322 5.95227 6.17264C5.19616 5.9206 4.65642 5.64253 4.32624 5.38232C4.16408 5.25453 4.07752 5.15057 4.03507 5.08143C4.01483 5.04845 4.00645 5.02644 4.00305 5.01529C4.00018 5.00584 4 4.99994 4 4.99994Z" fill="#801ED7"/>
</svg>
